src/16/actions/process-stop.svg

<svg xmlns="http://www.w3.org/2000/svg" width="16" height="16" viewBox="0 0 16 16">
 <defs>
  <style id="current-color-scheme" type="text/css">
   .ColorScheme-Text { color:#565656; } .ColorScheme-Highlight { color:#5294e2; }
  </style>
 </defs>
 <path style="fill:currentColor" class="ColorScheme-Text" d="M 5.2167969 1 L 4.9042969 1.28125 L 1.2792969 4.90625 L 0.99804688 5.21875 L 0.99804688 10.78125 L 1.2792969 11.09375 L 4.9042969 14.71875 L 5.2167969 15 L 10.779297 15 L 11.091797 14.71875 L 14.716797 11.09375 L 14.998047 10.78125 L 14.998047 5.21875 L 14.716797 4.90625 L 11.091797 1.28125 L 10.779297 1 L 5.2167969 1 z M 5.9980469 3 L 9.9980469 3 L 12.998047 6 L 12.998047 10 L 9.9980469 13 L 5.9980469 13 L 2.9980469 10 L 2.9980469 6 L 5.9980469 3 z M 6.4355469 4 L 3.9980469 6.4375 L 3.9980469 9.5625 L 6.4355469 12 L 9.5605469 12 L 11.998047 9.5625 L 11.998047 6.4375 L 9.5605469 4 L 6.4355469 4 z"/>
</svg>

<svg xmlns="http://www.w3.org/2000/svg" width="16" height="16"><defs><style id="current-color-scheme" type="text/css"></style></defs><path d="M5.217 1l-.313.281L1.28 4.906l-.281.313v5.562l.281.313 3.625 3.625.313.281h5.562l.313-.281 3.625-3.625.281-.313V5.22l-.281-.313-3.625-3.625L10.779 1H5.217zm.781 2h4l3 3v4l-3 3h-4l-3-3V6l3-3zm.438 1L3.998 6.438v3.125L6.436 12H9.56l2.437-2.438V6.438L9.561 4H6.436z" fill="currentColor" color="#565656"/></svg>
